X: 1
T:The House of the Rising Sun
C:Traditional
S:Lewis Music Publishing Co.
M:3/4
L:1/4
F:http://troseandassociates.com/abc/HouseOfTheRisingSun.abc 2003-10-11 04:15:35 UT
K:C
E | "Am"A,2 (B,/2A,/2) | "Am6"C "Dm" (D/2^D/2) | "E7"E (C/2B,/2) |
"Am"A,2 "E7"E | "Am"A2 E | "Em"G "G7"(E/2D/2) | "C"E3- |
"E7"E2 ^G/2A/2 | "Am"A- "F"A "Am"A, | "F"C/2 "F#o"C3/2 "E7"E/2 | "Am"E/2
E/2 E "Am7"C/2B,/2 | "F"A,2 "Dm6"D | "Am"E2 E |
"E7"E2 (C/2B,/2) | "Am"A,2- "Dm"A,- | "Am"A, z z | "C#7"z "G7"z2 | "F#7"z3 |
z z ^F ||
K:D
"Bm"B,2 C/2B,/2 | "Bm6"D/2 D3/2 "Em"E/2^E/2 | "F#7"F2 D/2E/2 ||
"Bm"B,2 "F#7"F | "Bm"B2 F | "F#m"A2 "A7"F/2E/2 | "D"F3- | "F#7"F2 ^A/2B/2 |
"Bm"B- "G"B "Bm"B, | "G"d "Go"D "F#7"F | "Bm"F/2F/2 F "Bm7"D/2C/2 |
"G"B,2 "Em6" E | "Bm"F2 F | "F#7"F2 D/2C/2 | "G"B,2- "B7"B,- | "Em"B,2 "Em6"E
|
"Bm"F2 F/2F/2 | "F#7"F2 D/2C/2 | "Bm"B,2- "Em6"B,- | "Bm"B,2 z :|
%
W:1. There is a house in New Orleans
W:they call the Rising Sun.
W:It has been the ruin of many a poor young girl,
W:and I, Oh, Lord, was one.
W:If ...
W:
W:2. Go speak to my ba-by sis-ter and say
W:"Don't do as I have done.
W:Stay away from places like this one in New Orleans
W:they call the Rising Sun."
W:Now ...
